X:9
T:The Mallard - Masters
C:Taken down from J. Masters by H.Fl.S.
%%VWML:SBG-1-1-383-0
F:http://www.vwml.org/record/SBG/1/1/383
Z:Original Sibleius Transcription by Martin and Shan Graebe
L:1/8
M:6/8
I:linebreak $
K:C
E | A2 B c2 c | dcB A2 E | c2 d e2 ^f | edB cA :| A2 B cBA | c2 A c2 A |$ A2 B cBA | 
c2 d !fermata!e2 E | c2 d e2 ^f | edc dcB | c2 d e2 f | edB cA z |] 
T:The Mallard - Woodrich
T:Different air to same words taken down from J. Woodrich by F.W.B. Dec. 26. 1890
L:1/8
M:6/8
I:linebreak $
K:C
G | c2 c c2 c | BBA G2 G | c2 c d2 d | ec e2 e2 | d3 ccc |$ B4 e | ggg g2 c | ggg [dg][gc][fB] | 
w: |||||||||
z4 e!fermata!c | f2 f e2 d/c/ | cB  |] 
w: And _|so * meat was *||



